app/dist/common/images/ardelyx.svg

<svg height="18" viewBox="0 0 18 18" width="18" xmlns="http://www.w3.org/2000/svg"><path d="m0 0h18v18h-18z" fill="#f47f22"/><path d="m5.65 10 1.7-4.9c.16-.4.65-1.1 1.65-1.1s1.38.67 1.57 1.1l2.93 7.9h-.99a1 1 0 0 1 -.94-.67l-2.25-6.38c-.03-.1-.14-.27-.33-.27-.22 0-.31.2-.34.26l-1.38 4.06zm-1.65 0h1.5v.94c0 .44.36.8.8.8h.4a.8.8 0 0 0 .8-.8v-.94h1.5v1a2 2 0 0 1 -2 2h-1a2 2 0 0 1 -2-2z" fill="#fff"/></svg>

<!-- by TradingView --><svg xmlns="http://www.w3.org/2000/svg" width="18" height="18" viewBox="0 0 18 18"><path fill="#F47F22" d="M0 0h18v18H0z"/><path d="M5.65 10l1.7-4.9C7.51 4.7 8 4 9 4c1 0 1.38.67 1.57 1.1L13.5 13h-.99a1 1 0 0 1-.94-.67L9.32 5.95c-.03-.1-.14-.27-.33-.27-.22 0-.31.2-.34.26L7.27 10H5.65zM4 10h1.5v.94c0 .44.36.8.8.8h.4a.8.8 0 0 0 .8-.8V10H9v1a2 2 0 0 1-2 2H6a2 2 0 0 1-2-2v-1z" fill="#fff"/></svg>
